src/svgs/number.svg

<?xml version="1.0" encoding="UTF-8" standalone="no"?>
<!-- Created with Inkscape (http://www.inkscape.org/) -->

<svg
   xmlns:dc="http://purl.org/dc/elements/1.1/"
   xmlns:cc="http://creativecommons.org/ns#"
   xmlns:rdf="http://www.w3.org/1999/02/22-rdf-syntax-ns#"
   xmlns:svg="http://www.w3.org/2000/svg"
   xmlns="http://www.w3.org/2000/svg"
   xmlns:sodipodi="http://sodipodi.sourceforge.net/DTD/sodipodi-0.dtd"
   xmlns:inkscape="http://www.inkscape.org/namespaces/inkscape"
   width="20"
   height="20"
   id="svg5738"
   version="1.1"
   inkscape:version="0.91 r13725"
   sodipodi:docname="number.svg"
   viewBox="0 0 20 20">
  <defs
     id="defs5740" />
  <sodipodi:namedview
     id="base"
     pagecolor="#ffffff"
     bordercolor="#666666"
     borderopacity="1.0"
     inkscape:pageopacity="0.0"
     inkscape:pageshadow="2"
     inkscape:zoom="1"
     inkscape:cx="9.5684468"
     inkscape:cy="10.330633"
     inkscape:document-units="px"
     inkscape:current-layer="layer1"
     showgrid="false"
     inkscape:window-width="1657"
     inkscape:window-height="1018"
     inkscape:window-x="426"
     inkscape:window-y="17"
     inkscape:window-maximized="0"
     inkscape:snap-bbox="true"
     inkscape:snap-nodes="true"
     inkscape:bbox-paths="true"
     inkscape:bbox-nodes="true"
     inkscape:object-paths="true"
     inkscape:object-nodes="true"
     inkscape:snap-smooth-nodes="true"
     showguides="false"
     inkscape:guide-bbox="true">
    <inkscape:grid
       type="xygrid"
       id="grid5746"
       empspacing="2"
       visible="true"
       enabled="true"
       snapvisiblegridlinesonly="true"
       spacingx="0.5"
       spacingy="0.5" />
    <sodipodi:guide
       position="11,17"
       orientation="0,1"
       id="guide4623" />
    <sodipodi:guide
       position="15,3"
       orientation="0,1"
       id="guide4625" />
    <sodipodi:guide
       position="3,15"
       orientation="1,0"
       id="guide4627" />
    <sodipodi:guide
       position="17,14"
       orientation="1,0"
       id="guide4629" />
  </sodipodi:namedview>
  <metadata
     id="metadata5743">
    <rdf:RDF>
      <cc:Work
         rdf:about="">
        <dc:format>image/svg+xml</dc:format>
        <dc:type
           rdf:resource="http://purl.org/dc/dcmitype/StillImage" />
        <dc:title></dc:title>
      </cc:Work>
    </rdf:RDF>
  </metadata>
  <g
     inkscape:label="Layer 1"
     inkscape:groupmode="layer"
     id="layer1"
     transform="translate(0,-1032.3622)">
    <path
       style="color:#000000;clip-rule:nonzero;display:inline;overflow:visible;visibility:visible;opacity:1;isolation:auto;mix-blend-mode:normal;color-interpolation:sRGB;color-interpolation-filters:linearRGB;solid-color:#000000;solid-opacity:1;fill:#000000;fill-opacity:1;fill-rule:nonzero;stroke:none;stroke-width:2;stroke-linecap:round;stroke-linejoin:round;stroke-miterlimit:4;stroke-dasharray:none;stroke-opacity:1;marker:none;color-rendering:auto;image-rendering:auto;shape-rendering:auto;text-rendering:auto;enable-background:accumulate"
       d="M 8.9863281 4.0019531 C 8.5109802 4.0097078 8.1067894 4.3510247 8.0195312 4.8183594 L 7.5820312 7 L 6 7 C 5.4477153 7 5 7.4477153 5 8 C 5 8.5522847 5.4477153 9 6 9 L 7.1816406 9 L 6.7792969 11 L 5 11 C 4.4477153 11 4 11.447715 4 12 C 4 12.552285 4.4477153 13 5 13 L 6.3789062 13 L 6.0195312 14.789062 C 5.75651 16.096353 7.7174476 16.490885 7.9804688 15.183594 L 8.4179688 13 L 10.378906 13 L 10.019531 14.789062 C 9.7565106 16.096353 11.717448 16.490885 11.980469 15.183594 L 12.417969 13 L 14 13 A 1 1 0 0 0 15 12 A 1 1 0 0 0 14 11 L 12.820312 11 L 13.220703 9 L 15 9 C 15.552285 9 16 8.5522847 16 8 C 16 7.4477153 15.552285 7 15 7 L 13.621094 7 L 13.980469 5.2109375 C 14.114872 4.5820422 13.629341 3.9915834 12.986328 4.0019531 C 12.51098 4.0097078 12.106789 4.3510246 12.019531 4.8183594 L 11.582031 7 L 9.6210938 7 L 9.9804688 5.2109375 C 10.114872 4.5820423 9.6293412 3.9915836 8.9863281 4.0019531 z M 9.2207031 9 L 11.181641 9 L 10.779297 11 L 8.8203125 11 L 9.2207031 9 z "
       transform="translate(0,1032.3622)"
       id="path4648" />
    <text
       xml:space="preserve"
       style="font-style:normal;font-weight:normal;font-size:40px;line-height:125%;font-family:sans-serif;letter-spacing:0px;word-spacing:0px;fill:#000000;fill-opacity:1;stroke:none;stroke-width:1px;stroke-linecap:butt;stroke-linejoin:miter;stroke-opacity:1"
       x="3"
       y="1042.3622"
       id="text8989"
       sodipodi:linespacing="125%"><tspan
         sodipodi:role="line"
         id="tspan8991"
         x="3"
         y="1042.3622" /></text>
  </g>
</svg>

<?xml version="1.0" encoding="UTF-8" standalone="yes"?>
<svg viewBox="0 0 20 20">
  <path d="M9,4C8.5,4,8.1,4.4,8,4.8L7.6,7H6C5.4,7,5,7.4,5,8s0.4,1,1,1h1.2l-0.4,2H5c-0.6,0-1,0.4-1,1s0.4,1,1,1h1.4L6,14.8
	c-0.3,1.3,1.7,1.7,2,0.4L8.4,13h2L10,14.8c-0.3,1.3,1.7,1.7,2,0.4l0.4-2.2H14c0.6,0,1-0.4,1-1s-0.4-1-1-1h-1.2l0.4-2H15
	c0.6,0,1-0.4,1-1s-0.4-1-1-1h-1.4L14,5.2C14.1,4.6,13.6,4,13,4c-0.5,0-0.9,0.3-1,0.8L11.6,7h-2L10,5.2C10.1,4.6,9.6,4,9,4z M9.2,9h2
	l-0.4,2h-2L9.2,9z"/>
</svg>
